www/assets/icons/brightness_auto.svg

<svg width="24" height="24" viewBox="0 0 24 24" xmlns="http://www.w3.org/2000/svg" fill='currentColor'><g clip-path="url(#clip0_1616_5159)"><path d="M10.85 12.6499H13.15L12 8.99994L10.85 12.6499ZM20 8.68994V3.99994H15.31L12 0.689941L8.69 3.99994H4V8.68994L0.690002 11.9999L4 15.3099V19.9999H8.69L12 23.3099L15.31 19.9999H20V15.3099L23.31 11.9999L20 8.68994ZM14.3 15.9999L13.6 13.9999H10.4L9.7 15.9999H7.8L11 6.99994H13L16.2 15.9999H14.3Z"/></g><defs><clipPath id="clip0_1616_5159"><rect width="24" height="24"/></clipPath></defs></svg>

<svg xmlns="http://www.w3.org/2000/svg" width="24" height="24" viewBox="0 0 24 24" fill='currentColor'><g clip-path="url(#a)"><path d="M10.85 12.65h2.3L12 9zM20 8.69V4h-4.69L12 .69 8.69 4H4v4.69L.69 12 4 15.31V20h4.69L12 23.31 15.31 20H20v-4.69L23.31 12zM14.3 16l-.7-2h-3.2l-.7 2H7.8L11 7h2l3.2 9z"/></g><defs><clipPath id="a"><path d="M0 0h24v24H0z"/></clipPath></defs></svg>
